X:188
T:Sunny Days Jig
R:jig
C:Bruce Osborne - Jan. 2003
Z:abc by bosborne@kos.net
M:6/8
L:1/8
K:Eb
G/F/|EDE B,=A,B,|G,B,E GFE|FAF DFB|cB=A B2 G/F/|\
EDE B,=A,B,|G,B,E GFE|FAF DEF|EGF E2:|
|:B/c/|BGF GEB,|G,B,E GFE|FDB, B,CD|EGc B2 G/A/|\
BGF GEB,|G,B,E GFE|FDB, B,CD|EGF E2:|
